X:97
T: Der heimkehrende Soldat
N: Q2103N
O: Nordeuropa, Schweden
N: Schwedische Fassung der Ballade. Anhaengsel; letzte Zeile = Refrain.
R: Ballade, Ehe, Betrug
M: 6/8
L: 1/16
K: G
D2 | G2B2A2G2F2E2 | D2E2D2C2B,2D2 | G6z4
D2 | G2B2A2G2F2E2 | D2E2D2C2B,2D2 | G6z4
GA | B2B2B2B2A2B2 | d2d2d2A4
d2 | c2B2A2G2F2G2 | A2G2E2D4
G2 | D4D2B,4D2 | G6z4

